packages/foundations/assets/icons/functional/images/transportation/ship_24.svg

<svg width="24" height="24" viewBox="0 0 24 24" fill="none" xmlns="http://www.w3.org/2000/svg">
<g clip-path="url(#clip0_2214_7247)">
<path fill-rule="evenodd" clip-rule="evenodd" d="M19.4142 19.2525L19.5429 19.3575L19.7291 19.4913C19.7996 19.5391 19.8782 19.5894 19.963 19.6397C20.2942 19.8359 20.6118 19.9602 20.873 19.9919L21 20C21.5523 20 22 20.4477 22 21C22 21.5128 21.614 21.9355 21.1166 21.9933L20.9959 22C20.2947 21.999 19.61 21.7552 18.9435 21.3603L18.75 21.24L18.5565 21.3603C17.964 21.7113 17.3572 21.943 16.7372 21.9908L16.484 22C15.7873 21.9961 15.1068 21.7529 14.4442 21.3604L14.25 21.24L14.0564 21.3603C13.4641 21.7113 12.8574 21.9429 12.2376 21.9908L11.997 22C11.2954 21.9993 10.6103 21.7554 9.94348 21.3603L9.75 21.24L9.55665 21.3603C8.96319 21.712 8.3552 21.9438 7.73398 21.9911L7.50041 22C6.79656 22 6.11003 21.756 5.44246 21.3602L5.25 21.241L5.05754 21.3602C4.38997 21.756 3.70344 22 3 22C2.44772 22 2 21.5523 2 21C2 20.4872 2.38604 20.0645 2.88338 20.0067L3 20C3.28248 20 3.65097 19.869 4.03754 19.6398C4.16464 19.5645 4.27746 19.4892 4.37054 19.4221L4.52874 19.301L4.58505 19.2531C4.93253 18.9438 5.44192 18.918 5.81639 19.1758L6.04317 19.358C6.14891 19.439 6.29299 19.5393 6.46246 19.6398C6.79381 19.8363 7.11187 19.9606 7.37385 19.9921L7.50014 20L7.62596 19.9921C7.88743 19.9605 8.20549 19.8362 8.53706 19.6397C8.62191 19.5894 8.70042 19.5392 8.77096 19.4914L8.95707 19.3576L9.08565 19.2526C9.4645 18.9158 10.0354 18.9158 10.4143 19.2525L10.5429 19.3575L10.7291 19.4913C10.7996 19.5392 10.8781 19.5894 10.963 19.6397C11.2943 19.836 11.6121 19.9603 11.8733 19.992L12.0014 20C12.2827 19.9996 12.6507 19.8686 13.0369 19.6397C13.1218 19.5894 13.2004 19.5391 13.2709 19.4913L13.4571 19.3575L13.5858 19.2524C13.9329 18.944 14.4412 18.9182 14.8153 19.175L15.0427 19.3572L15.2292 19.4911C15.2998 19.539 15.3784 19.5893 15.4634 19.6396C15.7931 19.8349 16.1095 19.959 16.3698 19.9915L16.5013 20C16.7826 19.9996 17.1506 19.8686 17.537 19.6397C17.6218 19.5894 17.7004 19.5391 17.7709 19.4913L17.9571 19.3575L18.0858 19.2525C18.4646 18.9158 19.0354 18.9158 19.4142 19.2525ZM13.2648 2C14.0849 2 14.8158 2.49966 15.1189 3.25009L15.1738 3.40345L17.235 10H21C21.5667 10 22.0201 10.4704 21.9993 11.0367C21.9029 13.6651 20.6738 16.1233 18.6289 17.7775C18.1995 18.1248 17.5698 18.0583 17.2225 17.6289C16.8752 17.1995 16.9417 16.5699 17.371 16.2225C18.6764 15.1666 19.5557 13.6907 19.8735 12.0658L19.884 12H3C2.48716 12 2.06449 11.614 2.00673 11.1166L2 11C2 10.4872 2.38604 10.0645 2.88338 10.0067L3 10H15.139L14.514 8H5C4.44772 8 4 7.55228 4 7C4 6.48716 4.38604 6.06449 4.88338 6.00673L5 6H13.889L13.2648 4H3C2.44772 4 2 3.55228 2 3C2 2.48716 2.38604 2.06449 2.88338 2.00673L3 2H13.2648ZM11.25 13.75C11.9404 13.75 12.5 14.3096 12.5 15C12.5 15.6904 11.9404 16.25 11.25 16.25C10.5596 16.25 10 15.6904 10 15C10 14.3096 10.5596 13.75 11.25 13.75ZM15.25 13.75C15.9404 13.75 16.5 14.3096 16.5 15C16.5 15.6904 15.9404 16.25 15.25 16.25C14.5596 16.25 14 15.6904 14 15C14 14.3096 14.5596 13.75 15.25 13.75ZM7.25 13.75C7.94036 13.75 8.5 14.3096 8.5 15C8.5 15.6904 7.94036 16.25 7.25 16.25C6.55964 16.25 6 15.6904 6 15C6 14.3096 6.55964 13.75 7.25 13.75ZM3.25 13.75C3.94036 13.75 4.5 14.3096 4.5 15C4.5 15.6904 3.94036 16.25 3.25 16.25C2.55964 16.25 2 15.6904 2 15C2 14.3096 2.55964 13.75 3.25 13.75Z" fill="#1A1C1F"/>
</g>
<defs>
<clipPath id="clip0_2214_7247">
<rect width="24" height="24" fill="white"/>
</clipPath>
</defs>
</svg>

<svg xmlns="http://www.w3.org/2000/svg" width="24" height="24" fill="none"><g clip-path="url(#a)"><path fill="#1A1C1F" fill-rule="evenodd" d="m19.414 19.253.129.105.186.133q.107.072.234.149c.331.196.649.32.91.352L21 20a1 1 0 0 1 .117 1.993l-.121.007c-.701-.001-1.386-.245-2.052-.64l-.194-.12-.194.12c-.592.351-1.199.583-1.819.63l-.253.01c-.697-.004-1.377-.247-2.04-.64l-.194-.12-.194.12c-.592.351-1.199.583-1.818.63l-.241.01c-.702 0-1.387-.245-2.054-.64l-.193-.12-.193.12c-.594.352-1.202.584-1.823.631L7.5 22c-.703 0-1.39-.244-2.058-.64l-.192-.119-.192.12C4.39 21.755 3.703 22 3 22a1 1 0 0 1-.117-1.993L3 20c.282 0 .651-.131 1.038-.36q.192-.115.333-.218l.158-.121.056-.048a1 1 0 0 1 1.231-.077l.227.182c.106.081.25.181.42.282.33.196.649.32.91.352L7.5 20l.126-.008c.261-.032.58-.156.911-.352a5 5 0 0 0 .234-.149l.186-.133.129-.105a1 1 0 0 1 1.328 0l.129.105.186.133q.106.072.234.149c.331.196.65.32.91.352l.128.008c.282 0 .65-.131 1.036-.36q.128-.075.234-.149l.186-.133.129-.106a1 1 0 0 1 1.23-.077l.227.182.186.134q.107.072.234.149c.33.195.647.319.907.351L16.5 20c.282 0 .65-.131 1.036-.36q.127-.075.234-.149l.186-.133.129-.105a1 1 0 0 1 1.328 0M13.264 2a2 2 0 0 1 1.855 1.25l.055.153L17.235 10H21a1 1 0 0 1 1 1.037 9.1 9.1 0 0 1-3.371 6.74 1 1 0 0 1-1.258-1.555 7.1 7.1 0 0 0 2.503-4.156l.01-.066H3a1 1 0 0 1-.993-.883L2 11a1 1 0 0 1 .883-.993L3 10h12.139l-.625-2H5a1 1 0 0 1-.117-1.993L5 6h8.889l-.624-2H3a1 1 0 0 1-.117-1.993L3 2zM11.25 13.75a1.25 1.25 0 1 1 0 2.5 1.25 1.25 0 0 1 0-2.5m4 0a1.25 1.25 0 1 1 0 2.5 1.25 1.25 0 0 1 0-2.5m-8 0a1.25 1.25 0 1 1 0 2.5 1.25 1.25 0 0 1 0-2.5m-4 0a1.25 1.25 0 1 1 0 2.5 1.25 1.25 0 0 1 0-2.5" clip-rule="evenodd"/></g><defs><clipPath id="a"><path fill="#fff" d="M0 0h24v24H0z"/></clipPath></defs></svg>
